X:1
T:N 3. THEME.
T: 39. CANTABILE
T:R.SCHUMANN (1810-1856)
T: Ce marceau commence par un prelude de huit mesures precedant une phrase melodique dune grande beaute et dans laquelle on sent de suite l'inspiration et l'ecriture d'un grand maitre. La melodic en sera, bien mise en relief et tres nuances, en se servant, pour cela du registre     . La, deuxième partie du morceau n'est que la répétition de la première, avec une terminaison de trois mesures pendant  lesquelles on rallentira le mouvement. Si l'instrument le permet, on ajoutera à la registration indiquée, un jeu doux de 16 pieds, sur toute l'étendue du clavier et l'on jouera, des deux mains, a l'octave supérieure.  
T:Louis Raffy Organistes Célébres Grands Maitres Classiques - VOLUME I
T:Louis Raffy Organistes Célébres Grands Maitres Classiques - VOLUME I
C:F. SCHUBERT (1797-1828)
Z:Louis Raffy Organistes Célébres Grands Maitres Classiques - VOLUME I
%%score { ( 1 2 ) | ( 3 4 ) }
L:1/8
Q:1/4=80
M:4/4
K:D
V:1 treble nm="Organ" snm="Org."
V:2 treble 
V:3 treble 
V:4 treble 
V:1
!pp!"^Moderator" (!3!f4 !2!!5![=fb]4 |"^E"!<(! [ca-]8!<)! | x4!>(! !4!g2 !1!d2 | %3
 !4![df]4!>)! !2!!3![ce]4) |!<(! (!2!d2 !3!e2 !4!f2!<)! !5!a2 | !2-3!B2 !4!c2 !5!d4- | %6
!>(! d4) !4!c4!>)! | !5!d4"^V. Cél 8" z4 |"^cantabile" (!3!f4 !5!a2 g2) | (e4 !4!g2 f2) | %10
 (!1!d4 !3!c2 !4!d2) | (!5!d4 !4!c4) |!>(! (!5!=c4!>)! !5!B2) !4!A2 | %13
!>(! (!3-4!^G4!>)! !3-4!!-2!=G4) |!<(! (!3![DF]4!<)! !5!B2) !4!G2 |!>(! (!3!F4!>)! E4) | %16
!p! (!3!f4 !5!a2 g2) | (e4 !4!g2 f2) | (!1!d4 !5!f2 !4!e2) | (!3!c3 !2!B) !1!A4 | %20
!<(! (!5!=c4!<)! !5!B2) !4!A2 |!>(! (!3-4!^G4!>)! !5!=G4) |!<(! (!4!F4!<)! !5!A2) !4!G2 | %23
!>(! (!3!F4!>)! !2!E4) |!p! (!3!e4 e2 f2 | !5!g3 f e4) |!<(! (!3!d4 d2 e2!<)! | %27
 !5!=f3 !-2!!4-5!d !4!_B2 !3!A2) |"_dim." (!2!^G2 A2 d4 | !4!^c2) (A2{/!4!c} B2 !1!A2) | %30
!pp! (!4-3!f4 [=fb]4 |!<(! [ca]8!<)! |!>(! a4 a2!>)! d2 |!>(! !4!f4) !3!e4!>)! | (d2!<(! e2 f2 a2 | %35
 !2-3!B2!<)! c2 d4- | d4 c4 | d4) z4 | (!3!f4 a2 g2) | (e4 g2 f2) | c4- c2 d2 | (d4 !4!c4) | %42
!<(! (!5!=c4!<)! !5!B2 !4!A2) |!>(!!>(! (!3-4![^Gc]4 !3-4!!-2!=G4)!>)!!>)! | %44
!<(! (!3!F4!<)! B2) G2 |!>(! (!3-4!F4!>)! E4) | !2!D4 D2 E2 | (!4!F4 !3!D2 E2) | !fermata![A,F]8 |] %49
V:2
 d8 | !2!e4 !3!^f2 !4!g2 | [dfa]4 d4- | x8 | [A-d]8 | !-2!A2 !1!G2 !2!F2 !4!B2 | !1!E8 | !2!F4 x4 | %8
 x8 | x8 | x8 | x4 !2!A2 !1!=G2 | !2!F2 !1!E2 !2!^D4 | E8 | x4 !2!E4 | !1!C8 | x8 | x8 | x8 | x8 | %20
 E4 !2!^D4 | !1!D4 !2!C4 | !1-2!=C4 !1!B,4 | C8 | !1!=c8 | !1!B8 | !1!_B8 | !1!A4 =F4 | E8- | %29
 E2 x6 | !2-1!d8 | !2!e4 ^f2 g2 | [df]4 d4- | d4 !2!c4 | [A-d]8 | !-2!A2 G2 F2!>(! B2 | E8!>)! | %37
 !2!F4 x4 | x8 | x8 | x8 | x4 !2!A2 =G2 | !2!F2 !1!E2 !2!^D4 | E8 | D4 E4 | !1!C8 | (D4 B,4) | %47
 A,4 !2!_B,4 | x8 |] %49
V:3
 !1!A4 !2!^G4 | !1!=G4 F2 E2 | !1!D4[K:bass] B,2 _B,2 | !1!A,6 !3!G,2 | !4!F,8 | %5
 G,2 A,2 !1!B,2 !3!G,2 | !2!A,8- | A,2 (!2!A,2 !1!B,2 A,2) | !2!A,4 !1!B,4 | !1!C4 !1!A,4- | %10
 A,4 D4 | !2!!1![A,E]8 | !2!A,4 (!1!B,4 | !3![E,B,]4) !4![C,A,-]4 | %14
 !3-5!!-2![D,A,]4 !3!!1![G,B,]4 | !2!A,8 | !2!A,4 !1!B,4 | C4 A,4- | A,4 D4 | %19
 !2!!1![A,E]2 !3!!1![^G,D]2 !2!!1![A,C]4 | !1!A,4 !1!B,4- | B,4 A,4- | A,4 !1-2!E,4 | !1![A,,G,]8 | %24
[K:treble] (!1!A8 | !3!E8) | (!1!G8 | !2!=F4 (!4-1!D4) | D2) !2!^C2 B,2 _B,2 | !5!A,2 z2 z4 | %30
 A4 ^G4 | =G4 F2 E2 | D4[K:bass] B,2 _B,2 | A,6 G,2 | !4!F,8 | G,2 A,2 B,2 G,2 | (!1!A,8 | %37
 A,2) (!2!A,2 !1!B,2 !2!A,2) | [D,,A,]4 B,4 | C4 A,4 | [D,F,A,]4 D4 | [A,E]8 | A,4 (B,4 | %43
 [E,B,]4) !4!!1![C,A,-]4 | !3-5!!-2![D,A,]4 [G,B,]4 | !1!A,6 !1!G,2 | !2!F,4 !1!D,4- | (D,8 | %48
 !fermata![D,,D,]8) |] %49
V:4
 x8 | x8 | x4[K:bass] x4 | x8 | x8 | x8 | x8 | !5!D,4 z4 | [D,-F,]8 | [D,-G,]8 | %10
 [D,F,]4 !3!!5![E,^G,]4 | x8 | x8 | x8 | x8 | x8 | [D,-F,]8 | [D,-G,]8 | [D,F,]4 [E,^G,]4 | %19
 E,4 x4 | !2!F,4 !5!B,,4 | !2!E,4 A,,4 | !2!D,4 !5!G,,4 | x8 |[K:treble] x8 | x8 | x8 | x8 | x8 | %29
 x8 | x8 | x8 | x4[K:bass] x4 | x8 | x8 | x8 | A,4 A,,4 | !3-5!D,4 z4 | [D,-F,]8 | [D,-G,]8 | %40
 x4 [E,^G,]4 | x8 | x8 | x8 | x8 | A,4 !5!A,,4 | !3!D,4 !5-3!G,,4 | !5!D,,4 !3!G,,4 | x8 |] %49

